svg/black/entrp.svg

<?xml version="1.0" encoding="UTF-8"?>
<svg width="32px" height="32px" viewBox="0 0 32 32" version="1.1" xmlns="http://www.w3.org/2000/svg" xmlns:xlink="http://www.w3.org/1999/xlink">
    <!-- Generator: Sketch 52.4 (67378) - http://www.bohemiancoding.com/sketch -->
    <title>svg/black/entrp</title>
    <desc>Created with Sketch.</desc>
    <g id="black/entrp" stroke="none" stroke-width="1" fill="none" fill-rule="evenodd">
        <path d="M16,32 C7.163444,32 0,24.836556 0,16 C0,7.163444 7.163444,0 16,0 C24.836556,0 32,7.163444 32,16 C32,24.836556 24.836556,32 16,32 Z M14.7366812,4.5019578 C14.6286648,4.5173887 14.2120303,4.59454325 13.8108267,4.65626688 C11.573345,5.03432413 9.50560335,6.1299186 7.79277255,7.85046486 C6.07222629,9.56329566 5.02292454,11.5461673 4.58314366,13.9070963 C4.38254186,14.9795444 4.38254186,17.0781479 4.58314366,18.150596 C5.02292454,20.511525 6.07222629,22.4943967 7.79277255,24.2072275 C9.50560335,25.9277737 11.488475,26.9770755 13.849404,27.4168563 C14.9218521,27.6174581 17.0204556,27.6174581 18.0929037,27.4168563 C20.4538327,26.9770755 22.4367043,25.9277737 24.1495351,24.2072275 C25.8700814,22.4943967 26.9193831,20.511525 27.359164,18.150596 C27.5597658,17.0781479 27.5597658,14.9795444 27.359164,13.9070963 C26.9193831,11.5461673 25.8700814,9.56329566 24.1495351,7.85046486 C22.4752816,6.16849587 20.5849954,5.14234048 18.2935055,4.67941324 C17.5836837,4.53281961 15.2227548,4.4170878 14.7366812,4.5019578 Z M18.8567337,8.59114845 C18.9493191,8.62972572 18.9801809,8.74545753 18.9801809,9.05407569 L18.9801809,9.47071021 L18.4941073,9.47071021 C17.876871,9.47071021 17.3907974,9.70217383 17.1901956,10.0879465 C17.0590329,10.3348411 17.0513174,10.6357438 17.0513174,14.292869 C17.0513174,16.4531961 17.0204556,18.2663278 16.9895938,18.320336 C16.8275692,18.5672305 15.6393893,18.6366696 15.107023,18.4283524 L14.8909903,18.3434824 L14.8909903,14.3545926 C14.8909903,10.6357438 14.8832748,10.3348411 14.7521121,10.0879465 C14.5515103,9.70217383 14.0654367,9.47071021 13.4482004,9.47071021 L12.9621268,9.47071021 L12.9621268,9.05407569 C12.9621268,8.79175025 13.000704,8.62201026 13.0624277,8.5988639 C13.2013058,8.53714027 18.71014,8.53714027 18.8567337,8.59114845 Z M14.428063,11.8084928 L14.428063,12.7574936 L14.2043149,12.8886564 C13.8725503,13.0815427 13.3170377,13.6602018 13.0932895,14.038259 C12.9852731,14.2234299 12.8386795,14.5706253 12.7692404,14.8175199 L12.6457931,15.2573007 L11.7585159,15.2573007 C10.7477915,15.2573007 10.7786533,15.295878 10.994686,14.4471781 C11.2647269,13.4210227 11.9205405,12.3794364 12.7152322,11.7467692 C13.1550131,11.3918583 14.1271603,10.8594919 14.3200467,10.8594919 C14.4049167,10.8594919 14.428063,11.0600937 14.428063,11.8084928 Z M18.2549282,11.1295328 C19.5974173,11.8084928 20.5772799,13.0121036 20.9476217,14.4471781 C21.1636544,15.295878 21.1945162,15.2573007 20.1837918,15.2573007 L19.2965145,15.2573007 L19.1730673,14.8175199 C19.1036282,14.5706253 18.9570346,14.2234299 18.8490182,14.038259 C18.62527,13.6602018 18.0697573,13.0815427 17.7379928,12.8886564 L17.5142447,12.7574936 L17.5142447,11.8084928 C17.5142447,11.0600937 17.537391,10.8594919 17.622261,10.8594919 C17.6762692,10.8594919 17.961741,10.9829392 18.2549282,11.1295328 Z M12.6535086,15.9825534 C12.6535086,16.3451798 12.8926877,17.0858634 13.1395822,17.4716361 C14.4589249,19.5625241 17.4833828,19.5625241 18.8027255,17.4716361 C19.04962,17.0858634 19.2887991,16.3451798 19.2887991,15.9825534 L19.2887991,15.720228 L20.2146536,15.720228 L21.1327926,15.720228 L21.0942153,16.1214316 C20.901329,17.9962869 19.8674581,19.5085159 18.2472128,20.3109232 C17.4988137,20.6812649 16.8430002,20.835574 15.9711538,20.835574 C13.2707449,20.835574 11.1335642,18.8681332 10.8480924,16.1214316 L10.8095151,15.720228 L11.7276541,15.720228 L12.6535086,15.720228 L12.6535086,15.9825534 Z M17.0898947,21.5608267 C17.1901956,22.1009085 17.7457083,22.432673 18.5789773,22.432673 L18.9801809,22.432673 L18.9801809,22.857023 L18.9801809,23.281373 L15.9711538,23.281373 L12.9621268,23.281373 L12.9621268,22.8647384 L12.9621268,22.4558194 L13.5253549,22.4172421 C13.8879813,22.3940957 14.1811685,22.3246567 14.343193,22.2320712 C14.5823721,22.093193 14.8909903,21.6302658 14.8909903,21.4142331 C14.8909903,21.3370785 15.1378848,21.3139322 15.9634384,21.3139322 L17.043602,21.3139322 L17.0898947,21.5608267 Z" id="Combined-Shape" fill="#000000" fill-rule="nonzero"></path>
    </g>
</svg>

<svg width="32" height="32" viewBox="0 0 32 32" xmlns="http://www.w3.org/2000/svg"><path d="M16 32C7.163 32 0 24.837 0 16S7.163 0 16 0s16 7.163 16 16-7.163 16-16 16zM14.737 4.502c-.108.015-.525.093-.926.154-2.238.378-4.305 1.474-6.018 3.194-1.72 1.713-2.77 3.696-3.21 6.057-.2 1.073-.2 3.171 0 4.244.44 2.36 1.49 4.343 3.21 6.056 1.713 1.72 3.695 2.77 6.056 3.21 1.073.2 3.171.2 4.244 0 2.36-.44 4.344-1.49 6.057-3.21 1.72-1.713 2.77-3.695 3.21-6.056.2-1.073.2-3.171 0-4.244-.44-2.36-1.49-4.344-3.21-6.057-1.675-1.682-3.565-2.708-5.856-3.17-.71-.147-3.071-.263-3.557-.178zm4.12 4.09c.092.038.123.153.123.462v.417h-.486c-.617 0-1.103.231-1.304.617-.131.247-.139.548-.139 4.205 0 2.16-.03 3.973-.061 4.027-.162.247-1.35.317-1.883.108l-.216-.085v-3.988c0-3.72-.008-4.02-.139-4.267-.2-.386-.687-.617-1.304-.617h-.486v-.417c0-.262.039-.432.1-.455.14-.062 5.648-.062 5.795-.008zm-4.429 3.216v.95l-.224.13c-.331.194-.887.772-1.11 1.15a4.008 4.008 0 0 0-.325.78l-.123.44h-.887c-1.011 0-.98.038-.764-.81.27-1.027.926-2.069 1.72-2.701.44-.355 1.412-.888 1.605-.888.085 0 .108.201.108.95zm3.827-.678a5.173 5.173 0 0 1 2.693 3.317c.216.849.247.81-.764.81h-.887l-.124-.44a4.008 4.008 0 0 0-.324-.779c-.224-.378-.78-.956-1.111-1.15l-.224-.13v-.95c0-.748.023-.949.108-.949.054 0 .34.124.633.27zm-5.601 4.853c0 .362.239 1.103.486 1.489 1.319 2.09 4.343 2.09 5.663 0 .247-.386.486-1.127.486-1.49v-.262h1.844l-.039.401c-.193 1.875-1.227 3.388-2.847 4.19-.748.37-1.404.525-2.276.525-2.7 0-4.837-1.968-5.123-4.715l-.038-.4h1.844v.262zm4.436 5.578c.1.54.656.872 1.489.872h.401v.848h-6.018v-.826l.563-.038c.363-.023.656-.092.818-.185.24-.139.548-.602.548-.818 0-.077.247-.1 1.072-.1h1.08l.047.247z"/></svg>
